icon/ir/database-star.svg

<svg stroke-width="1.5" viewBox="0 0 24 24" fill="none" xmlns="http://www.w3.org/2000/svg" height="1em" width="1em">
  <path d="M4 6V12C4 12 4 15 11 15C18 15 18 12 18 12V6" stroke="currentColor" stroke-linecap="round" stroke-linejoin="round"/>
  <path d="M11 3C18 3 18 6 18 6C18 6 18 9 11 9C4 9 4 6 4 6C4 6 4 3 11 3Z" stroke="currentColor" stroke-linecap="round" stroke-linejoin="round"/>
  <path d="M11 21C4 21 4 18 4 18V12" stroke="currentColor" stroke-linecap="round" stroke-linejoin="round"/>
  <path d="M17.3056 17.1133L18.2147 15.1856C18.3314 14.9381 18.6686 14.9381 18.7853 15.1856L19.6944 17.1133L21.7275 17.4243C21.9884 17.4642 22.0923 17.7998 21.9035 17.9923L20.4326 19.4917L20.7797 21.61C20.8243 21.882 20.5515 22.0895 20.3181 21.961L18.5 20.9603L16.6819 21.961C16.4485 22.0895 16.1757 21.882 16.2203 21.61L16.5674 19.4917L15.0965 17.9923C14.9077 17.7998 15.0116 17.4642 15.2725 17.4243L17.3056 17.1133Z" stroke="currentColor" stroke-linecap="round" stroke-linejoin="round"/>
</svg>

<svg width="24" height="24" stroke-width="1.5" fill="none" xmlns="http://www.w3.org/2000/svg"><path d="M4 6v6s0 3 7 3 7-3 7-3V6" stroke="currentColor" stroke-linecap="round" stroke-linejoin="round"/><path d="M11 3c7 0 7 3 7 3s0 3-7 3-7-3-7-3 0-3 7-3ZM11 21c-7 0-7-3-7-3v-6M17.306 17.113l.909-1.927a.312.312 0 0 1 .57 0l.91 1.927 2.032.311c.261.04.365.376.177.568l-1.471 1.5.347 2.118c.044.272-.229.48-.462.351l-1.818-1-1.818 1c-.233.129-.506-.079-.462-.351l.347-2.118-1.47-1.5c-.19-.192-.085-.528.176-.568l2.033-.31Z" stroke="currentColor" stroke-linecap="round" stroke-linejoin="round"/></svg>
